X: 24
T:Bill Sullivan's
R:polka
M:2/4
L:1/8
Q:220
K:A
|:"A" a2 a>f| ec a>f| ec a>f| ec "E"BA| "A" a2 a>f| ec a2| ce "E"B>c| "A" BA  A2:|:
 "A" ce ec| "D" df fd| "A" ce eA| "E"cB BA/B/| "A"ce ec| "D"df fd| "A"ce "E"B>c|"A" BA A2:||
